Newaita/actions/32/dialog-xml-editor.svg

<svg height="32" viewBox="0 0 32 32" width="32" xmlns="http://www.w3.org/2000/svg"><g fill="#424242"><path d="m19.003906 1.898438 1.277344.339843c.355469.097657.5625.460938.46875.8125l-7.191406 26.835938c-.09375.355469-.457032.5625-.808594.46875l-1.277344-.34375c-.355468-.09375-.5625-.457031-.46875-.808594l7.191406-26.835937c.09375-.355469.457032-.5625.808594-.46875zm0 0" fill-opacity=".984472"/><g fill-rule="evenodd"><path d="m10.1875 8.53125c-.25.007812-.492188.113281-.667969.296875l-6.613281 6.613281c-.378906.378906-.378906.992188 0 1.371094l6.613281 6.613281c.246094.25.605469.351563.941407.261719.339843-.089844.601562-.351562.691406-.691406.089844-.335938-.011719-.695313-.261719-.9375l-5.929687-5.933594 5.929687-5.929688c.289063-.277343.375-.703124.21875-1.070312s-.523437-.605469-.921875-.59375zm0 0"/><path d="m21.566406 8.53125c.25.007812.488282.113281.664063.296875l6.617187 6.613281c.378906.378906.378906.992188 0 1.371094l-6.617187 6.613281c-.242188.25-.601563.351563-.9375.261719-.339844-.089844-.601563-.351562-.691407-.691406-.089843-.335938.011719-.695313.261719-.9375l5.929688-5.933594-5.929688-5.929688c-.289062-.277343-.375-.703124-.21875-1.070312s.523438-.605469.921875-.59375zm0 0"/></g></g></svg>

<?xml version="1.0" encoding="UTF-8"?>
<svg xmlns="http://www.w3.org/2000/svg" xmlns:xlink="http://www.w3.org/1999/xlink" width="32px" height="32px" viewBox="0 0 32 32" version="1.1">
<g id="surface1">
<path style=" stroke:none;fill-rule:nonzero;fill:rgb(25.882354%,25.882354%,25.882354%);fill-opacity:0.984472;" d="M 19.003906 1.898438 L 20.28125 2.238281 C 20.636719 2.335938 20.84375 2.699219 20.75 3.050781 L 13.558594 29.886719 C 13.464844 30.242188 13.101562 30.449219 12.75 30.355469 L 11.472656 30.011719 C 11.117188 29.917969 10.910156 29.554688 11.003906 29.203125 L 18.195312 2.367188 C 18.289062 2.011719 18.652344 1.804688 19.003906 1.898438 Z M 19.003906 1.898438 "/>
<path style=" stroke:none;fill-rule:evenodd;fill:rgb(25.882354%,25.882354%,25.882354%);fill-opacity:1;" d="M 10.1875 8.53125 C 9.9375 8.539062 9.695312 8.644531 9.519531 8.828125 L 2.90625 15.441406 C 2.527344 15.820312 2.527344 16.433594 2.90625 16.8125 L 9.519531 23.425781 C 9.765625 23.675781 10.125 23.777344 10.460938 23.6875 C 10.800781 23.597656 11.0625 23.335938 11.152344 22.996094 C 11.242188 22.660156 11.140625 22.300781 10.890625 22.058594 L 4.960938 16.125 L 10.890625 10.195312 C 11.179688 9.917969 11.265625 9.492188 11.109375 9.125 C 10.953125 8.757812 10.585938 8.519531 10.1875 8.53125 Z M 10.1875 8.53125 "/>
<path style=" stroke:none;fill-rule:evenodd;fill:rgb(25.882354%,25.882354%,25.882354%);fill-opacity:1;" d="M 21.566406 8.53125 C 21.816406 8.539062 22.054688 8.644531 22.230469 8.828125 L 28.847656 15.441406 C 29.226562 15.820312 29.226562 16.433594 28.847656 16.8125 L 22.230469 23.425781 C 21.988281 23.675781 21.628906 23.777344 21.292969 23.6875 C 20.953125 23.597656 20.691406 23.335938 20.601562 22.996094 C 20.511719 22.660156 20.613281 22.300781 20.863281 22.058594 L 26.792969 16.125 L 20.863281 10.195312 C 20.574219 9.917969 20.488281 9.492188 20.644531 9.125 C 20.800781 8.757812 21.167969 8.519531 21.566406 8.53125 Z M 21.566406 8.53125 "/>
</g>
</svg>
